assets/Kissing face with closed eyes/Flat/kissing_face_with_closed_eyes_flat.svg

<svg width="32" height="32" viewBox="0 0 32 32" fill="none" xmlns="http://www.w3.org/2000/svg">
<path d="M15.9989 29.9978C25.3333 29.9978 29.9978 23.7303 29.9978 15.9989C29.9978 8.26751 25.3333 2 15.9989 2C6.66443 2 2 8.26751 2 15.9989C2 23.7303 6.66443 29.9978 15.9989 29.9978Z" fill="#FFB02E"/>
<path d="M11 19C11 20.1046 9.65685 21 8 21C6.34315 21 5 20.1046 5 19C5 17.8954 6.34315 17 8 17C9.65685 17 11 17.8954 11 19Z" fill="#FF6723"/>
<path d="M27 19C27 20.1046 25.6569 21 24 21C22.3431 21 21 20.1046 21 19C21 17.8954 22.3431 17 24 17C25.6569 17 27 17.8954 27 19Z" fill="#FF6723"/>
<path d="M17.6699 16.9199C17.1176 16.9199 16.6699 17.3676 16.6699 17.9199C16.6699 18.4722 17.1176 18.9199 17.6699 18.9199C17.9576 18.9199 18.1899 19.1522 18.1899 19.4399C18.1899 19.7276 17.9576 19.9599 17.6699 19.9599C17.1176 19.9599 16.6699 20.4076 16.6699 20.9599C16.6699 20.9599 16.6699 20.9599 16.6699 20.9599C16.6699 21.5122 17.1176 21.96 17.6699 21.96C17.9576 21.96 18.1899 22.1922 18.1899 22.48C18.1899 22.7677 17.9576 23 17.6699 23C17.1176 23 16.6699 23.4477 16.6699 24C16.6699 24.5522 17.1176 25 17.6699 25C19.0622 25 20.1899 23.8722 20.1899 22.48C20.1899 21.9089 20.0002 21.3824 19.6804 20.9599C20.0002 20.5375 20.1899 20.0109 20.1899 19.4399C20.1899 18.0476 19.0622 16.9199 17.6699 16.9199Z" fill="#402A32"/>
<path d="M8.06915 7.98761C7.47625 8.55049 7.11769 9.22774 6.97423 9.65811C6.88691 9.92009 6.60375 10.0617 6.34178 9.97434C6.07981 9.88702 5.93823 9.60386 6.02555 9.34189C6.21542 8.77226 6.65687 7.94951 7.38064 7.26239C8.1129 6.5672 9.1478 6 10.4999 6C10.776 6 10.9999 6.22386 10.9999 6.5C10.9999 6.77614 10.776 7 10.4999 7C9.45198 7 8.65355 7.4328 8.06915 7.98761Z" fill="#402A32"/>
<path d="M23.9309 7.98761C24.5238 8.55049 24.8823 9.22774 25.0258 9.65811C25.1131 9.92009 25.3963 10.0617 25.6582 9.97434C25.9202 9.88702 26.0618 9.60386 25.9745 9.34189C25.7846 8.77226 25.3431 7.94951 24.6194 7.26239C23.8871 6.5672 22.8522 6 21.5001 6C21.224 6 21.0001 6.22386 21.0001 6.5C21.0001 6.77614 21.224 7 21.5001 7C22.548 7 23.3465 7.4328 23.9309 7.98761Z" fill="#402A32"/>
<path d="M9.34896 13.4125C9.13971 13.6405 9.02964 13.9436 8.98156 14.1909C8.87614 14.733 8.3512 15.087 7.80907 14.9816C7.26694 14.8762 6.91291 14.3513 7.01833 13.8091C7.10696 13.3533 7.32826 12.6564 7.87551 12.0601C8.45269 11.4313 9.31564 11 10.4999 11C11.6955 11 12.562 11.4522 13.1357 12.082C13.6799 12.6794 13.9062 13.374 13.9852 13.8289C14.0797 14.373 13.7152 14.8908 13.171 14.9853C12.6269 15.0797 12.1092 14.7152 12.0147 14.1711C11.9804 13.9737 11.8753 13.6683 11.6572 13.4288C11.4685 13.2216 11.1417 13 10.4999 13C9.84698 13 9.52829 13.2171 9.34896 13.4125Z" fill="#402A32"/>
<path d="M20.3492 13.4125C20.14 13.6405 20.0299 13.9436 19.9818 14.1909C19.8764 14.733 19.3514 15.087 18.8093 14.9816C18.2672 14.8762 17.9132 14.3513 18.0186 13.8091C18.1072 13.3533 18.3285 12.6564 18.8758 12.0601C19.4529 11.4313 20.3159 11 21.5002 11C22.6957 11 23.5623 11.4522 24.1359 12.082C24.6802 12.6794 24.9064 13.374 24.9854 13.8289C25.0799 14.373 24.7154 14.8908 24.1713 14.9853C23.6271 15.0797 23.1094 14.7152 23.0149 14.1711C22.9806 13.9737 22.8756 13.6683 22.6574 13.4288C22.4687 13.2216 22.1419 13 21.5002 13C20.8472 13 20.5285 13.2171 20.3492 13.4125Z" fill="#402A32"/>
</svg>

<svg xmlns="http://www.w3.org/2000/svg" width="32" height="32" fill="none"><path fill="#FFB02E" d="M15.999 29.998c9.334 0 13.999-6.268 13.999-14 0-7.73-4.665-13.998-14-13.998C6.665 2 2 8.268 2 15.999c0 7.731 4.664 13.999 13.999 13.999Z"/><path fill="#FF6723" d="M11 19c0 1.105-1.343 2-3 2s-3-.895-3-2 1.343-2 3-2 3 .895 3 2ZM27 19c0 1.105-1.343 2-3 2s-3-.895-3-2 1.343-2 3-2 3 .895 3 2Z"/><path fill="#402A32" d="M17.67 16.92a1 1 0 1 0 0 2 .52.52 0 1 1 0 1.04 1 1 0 0 0 0 2 .52.52 0 1 1 0 1.04 1 1 0 1 0 0 2 2.52 2.52 0 0 0 2.01-4.04 2.52 2.52 0 0 0-2.01-4.04ZM8.07 7.988c-.594.562-.952 1.24-1.096 1.67a.5.5 0 1 1-.948-.316c.19-.57.63-1.392 1.355-2.08C8.113 6.567 9.148 6 10.5 6a.5.5 0 0 1 0 1c-1.048 0-1.846.433-2.43.988ZM23.93 7.988c.594.562.952 1.24 1.096 1.67a.5.5 0 1 0 .948-.316c-.19-.57-.63-1.392-1.355-2.08C23.887 6.567 22.852 6 21.5 6a.5.5 0 0 0 0 1c1.048 0 1.846.433 2.43.988ZM9.349 13.412c-.21.228-.32.532-.367.779a1 1 0 0 1-1.964-.382c.089-.456.31-1.153.858-1.749.577-.629 1.44-1.06 2.624-1.06 1.195 0 2.062.452 2.636 1.082.544.597.77 1.292.85 1.747a1 1 0 0 1-1.971.342 1.546 1.546 0 0 0-.358-.742C11.47 13.222 11.142 13 10.5 13c-.653 0-.972.217-1.151.412ZM20.35 13.412c-.21.228-.32.532-.368.779a1 1 0 0 1-1.963-.382c.088-.456.31-1.153.857-1.749.577-.629 1.44-1.06 2.624-1.06 1.196 0 2.062.452 2.636 1.082.544.597.77 1.292.85 1.747a1 1 0 0 1-1.971.342 1.546 1.546 0 0 0-.358-.742C22.47 13.222 22.142 13 21.5 13c-.653 0-.971.217-1.15.412Z"/></svg>
